common.blocks/social-icon/_clear/social-icon_clear_instagram-primary.svg

<svg xmlns="http://www.w3.org/2000/svg" width="24" height="24" viewBox="0 0 24 24">
  <path fill="#000000" fill-rule="evenodd" d="M12.0009375,2 L11.9978125,2 C14.7145074,2 15.0540943,2.011875 16.1207721,2.06041667 C17.1853665,2.10916667 17.9124574,2.27770833 18.5499641,2.525 C19.2083043,2.78020833 19.76456,3.121875 20.3208158,3.678125 C20.8770716,4.23395833 21.2187419,4.791875 21.4749945,5.44958333 C21.7208304,6.08541667 21.8895822,6.81208333 21.9395827,7.87666667 C21.9874999,8.94333333 22,9.28416667 22,12 C22,14.7158333 21.9874999,15.0558333 21.9395827,16.1225 C21.8895822,17.1866667 21.7208304,17.9135417 21.4749945,18.5495833 C21.2187419,19.2070833 20.8770716,19.765 20.3208158,20.3208333 C19.7651851,20.8770833 19.2080959,21.2195833 18.5505891,21.475 C17.9143324,21.7222917 17.1868249,21.8908333 16.1222304,21.9395833 C15.0555527,21.988125 14.7157575,22 11.9996875,22 C9.28403421,22 8.94340566,21.988125 7.87672788,21.9395833 C6.8123418,21.8908333 6.08545922,21.7222917 5.4492026,21.475 C4.79190408,21.2195833 4.2339816,20.8770833 3.67835082,20.3208333 C3.12230336,19.765 2.78063313,19.2070833 2.52500547,18.549375 C2.27791956,17.9135417 2.10937614,17.186875 2.0604173,16.1222917 C2.01208346,15.055625 2,14.7158333 2,12 C2,9.28416667 2.01250013,8.943125 2.06020896,7.87645833 C2.10812613,6.81229167 2.27687788,6.08541667 2.52479713,5.449375 C2.7810498,4.791875 3.12272003,4.23395833 3.67897582,3.678125 C4.23481495,3.12208333 4.79273742,2.78041667 5.45045261,2.525 C6.08629257,2.27770833 6.8129668,2.10916667 7.87756122,2.06041667 C8.944239,2.011875 9.28507589,2 12.0009375,2 Z M11.1038448,3.80208333 L11.1038448,3.79958333 C9.24007542,3.80166667 8.88257169,3.81416667 7.96006208,3.85583333 C6.98505193,3.900625 6.45567141,4.063125 6.10316774,4.200625 C5.63649621,4.38229167 5.30315941,4.59895833 4.95315576,4.94895833 C4.60315212,5.29895833 4.38606652,5.63229167 4.20481463,6.09895833 C4.06793821,6.45145833 3.90501984,6.980625 3.86043605,7.955625 C3.81251888,9.00979167 3.80293545,9.32479167 3.80293545,11.9952083 C3.80293545,14.665625 3.81251888,14.9822917 3.86043605,16.0364583 C3.90481151,17.0114583 4.06793821,17.540625 4.20481463,17.8927083 C4.38648319,18.3595833 4.60315212,18.6920833 4.95315576,19.0420833 C5.30315941,19.3920833 5.63649621,19.60875 6.10316774,19.79 C6.45587975,19.926875 6.98505193,20.0897917 7.96006208,20.1347917 C9.01423973,20.1827083 9.33070136,20.193125 12.0009375,20.193125 C14.6709653,20.193125 14.9876353,20.1827083 16.0418129,20.1347917 C17.0168231,20.0902083 17.5464119,19.9277083 17.8984989,19.7902083 C18.3653788,19.6089583 18.6976739,19.3922917 19.0476776,19.0422917 C19.3976812,18.6925 19.6147668,18.3602083 19.7960187,17.8935417 C19.9328951,17.5414583 20.0958135,17.0122917 20.1403973,16.0372917 C20.1883145,14.983125 20.1987312,14.6664583 20.1987312,11.9977083 C20.1987312,9.32895833 20.1883145,9.01229167 20.1403973,7.958125 C20.0960218,6.983125 19.9328951,6.45395833 19.7960187,6.101875 C19.6143501,5.63520833 19.3976812,5.301875 19.0476776,4.951875 C18.6978823,4.601875 18.3651705,4.38520833 17.8984989,4.20395833 C17.5459953,4.06708333 17.0168231,3.90416667 16.0418129,3.85958333 C14.987427,3.81166667 14.6709653,3.80208333 12.0009375,3.80208333 C11.667184,3.80208333 11.3700976,3.80166667 11.1038448,3.80208333 Z M17.3389098,5.4625 L17.3389098,5.46208333 C18.0014167,5.46208333 18.5389223,5.99958333 18.5389223,6.66208333 C18.5389223,7.32458333 18.0014167,7.86208333 17.3389098,7.86208333 C16.6764029,7.86208333 16.1388973,7.32458333 16.1388973,6.66208333 C16.1388973,5.999375 16.6764029,5.4625 17.3389098,5.4625 Z M12.0009375,6.86458333 L12.0007292,6.86458333 C14.8368004,6.86458333 17.1355743,9.16395833 17.1355743,12 C17.1355743,14.8360417 14.8370087,17.134375 12.0009375,17.134375 C9.1648663,17.134375 6.86546735,14.8360417 6.86546735,12 C6.86546735,9.16395833 9.1648663,6.86458333 12.0009375,6.86458333 Z M12.0009375,8.66666667 C10.1598767,8.66666667 8.66756945,10.1589583 8.66756945,12 C8.66756945,13.8408333 10.1598767,15.3333333 12.0009375,15.3333333 C13.84179,15.3333333 15.3343056,13.8408333 15.3343056,12 C15.3343056,10.1589583 13.84179,8.66666667 12.0009375,8.66666667 Z"/>
</svg>

<svg xmlns="http://www.w3.org/2000/svg" width="24" height="24"><path fill-rule="evenodd" d="M12 2h-.002c2.717 0 3.056.012 4.123.06 1.064.05 1.791.218 2.429.465a4.887 4.887 0 0 1 1.77 1.153 4.908 4.908 0 0 1 1.155 1.772c.246.635.415 1.362.465 2.427.047 1.066.06 1.407.06 4.123s-.013 3.056-.06 4.122c-.05 1.065-.22 1.792-.465 2.428a4.909 4.909 0 0 1-1.154 1.77 4.893 4.893 0 0 1-1.77 1.155c-.637.247-1.364.416-2.429.465-1.066.048-1.406.06-4.122.06s-3.057-.012-4.123-.06c-1.065-.05-1.792-.218-2.428-.465a4.897 4.897 0 0 1-1.77-1.154 4.9 4.9 0 0 1-1.154-1.772c-.247-.635-.416-1.362-.465-2.427C2.012 15.056 2 14.716 2 12s.013-3.057.06-4.124c.048-1.064.217-1.79.465-2.427a4.909 4.909 0 0 1 1.154-1.77A4.897 4.897 0 0 1 5.45 2.524c.636-.247 1.363-.416 2.428-.465C8.944 2.012 9.285 2 12 2zm-.896 1.802V3.8c-1.864.002-2.221.014-3.144.056-.975.045-1.504.207-1.857.345-.467.181-.8.398-1.15.748-.35.35-.567.683-.748 1.15-.137.352-.3.882-.345 1.857-.047 1.054-.057 1.369-.057 4.04 0 2.67.01 2.986.057 4.04.045.975.208 1.505.345 1.857.181.467.398.8.748 1.15.35.35.683.566 1.15.747.353.137.882.3 1.857.345 1.054.048 1.37.058 4.04.058 2.671 0 2.988-.01 4.042-.058.975-.045 1.504-.207 1.856-.345.467-.181.8-.398 1.15-.748.35-.35.567-.682.748-1.148.137-.353.3-.882.344-1.857.048-1.054.059-1.37.059-4.04 0-2.668-.01-2.985-.059-4.039-.044-.975-.207-1.504-.344-1.856a3.103 3.103 0 0 0-.748-1.15 3.093 3.093 0 0 0-1.15-.748c-.352-.137-.881-.3-1.856-.344-1.055-.048-1.371-.058-4.041-.058h-.897zm6.235 1.66a1.2 1.2 0 1 1 0 2.4 1.2 1.2 0 0 1 0-2.4zM12 6.866a5.135 5.135 0 1 1 0 10.269 5.135 5.135 0 0 1 0-10.27zm0 1.802a3.333 3.333 0 1 0 0 6.666 3.333 3.333 0 0 0 0-6.666z"/></svg>
